X:3
T:Tambourine. Pn1801.03, The
M:6/8
L:1/8
Q:3/8=120
C:"403"
W:Cast of(f) 2nd Cu: up again .| Hands 4 half round and back again :|
W: lead down the middle up again :|. Allemand with right Hands and left :||:
B:Preston 24 for 1801
Z:Village Music Project, John Adams, 2017
K:D
A|ded cBc|dfa d'2A|ded {d}cBc|d3D2A|
ded cBc|dfa d'2A|ded {d}cBc|d3D2:|
|:e/f/|gag fgf|efd ecA|Bcd efg|f3{gf}e2f|
gag fgf|efd ecA|Bcd ecA|B3d2:|
